X: 29450
T: Night In Newtown, The
R: reel
M: 4/4
K: Edorian
|BE (3E^DE B,EGB|AD (3D^CD A,DFA|BE (3E^DE BABd|egfe dBAd|
BE (3E^DE B,EGB|AD (3D^CD A,DFA|BE (3E^DE BABd|egfe dBA2||
e2ge bege|d2 (3fed ad (3fed|e2ge bege|defa geed|
e2ge bege|d2 (3fed ad (3fed|gfga bgaf|gfeg f2e2|

